X:1
T:O Savior, Precious Savior
T:O Savior, Precious Savior
T: James H. Burke, 1891
T:Frances Ridley Havergal, 1870
T:Public Domain Courtesy of the Cyber Hymnal™
T:Public Domain Courtesy of the Cyber Hymnal™
C:James H. Burke, 1891
Z:Public Domain
Z:Courtesy of the Cyber Hymnal™
%%score ( 1 2 ) ( 3 4 )
L:1/8
Q:1/4=117
M:4/4
K:Eb
V:1 treble 
V:2 treble 
V:3 bass 
V:4 bass 
V:1
 E2 | [EG]3 [EG] [EA]2 [Ec]2 | [EB]4 [EG]2 [DF]2 | E2 E2 [EF]2 [EG]2 | [DF]6 [DF]2 | %5
w: 1.~O|Sav- ior, pre- cious|Sav- ior, Whom|yet un- seen we|love! O|
w: 2.~O|Bring- er of sal-|va- tion, Who|won- drous- ly hast|wrought, Thy-|
w: 3.~In|Thee all full- ness|dwell- eth, All|grace and power di-|vine; The|
w: 4.~O|grant the con- sum-|ma- tion Of|this our song a-|bove, In|
 [EG]3 [EG] [EA]2 [Ec]2 | [EB]4 [EB]2 [Ge]2 | [Fd]2 [Ec]2 [DB]2 [E=A]2 | ([DB]4 [Ac]2) [Ad]2 | %9
w: Name of might and|fa- vor, All|o- ther names a-|bove! * We|
w: self the Rev- e-|la- tion Of|love be- yond our|thought; * We|
w: glor- y that ex-|cell- eth, O|Son of God, is|Thine; * We|
w: end- less a- dor-|a- tion, And|ev- er- last- ing|love! * Then|
 [Ge]3 [GB] [EG]2 E2 | [Ec]4 [Ec]2 [=Ec]2 | [Fc]3 [Fc] [Fd]2 [Fe]2 | ([Fd]4 [Ec]2) [DB]2 | %13
w: wor- ship Thee, we|bless Thee, To|Thee, O Christ, we|sing; * We|
w: wor- ship Thee, we|bless Thee, To|Thee, O Christ, we|sing; * We|
w: wor- ship Thee, we|bless Thee, To|Thee, O Christ, we|sing: * We|
w: shall we praise and|bless Thee Where|per- fect prais- es|ring, * And|
 [Ee]3 [GB] [EG]2 E2 | [Ec]4 [EA]2 [CF]2 | [B,E]2 [EG]2 [DF]3 E | E6 |] %17
w: praise Thee, and con-|fess Thee Our|ho- ly Lord and|king.|
w: praise Thee, and con-|fess Thee Our|gra- cious Lord and|king.|
w: praise Thee, and con-|fess Thee Our|glor- ious Lord and|king.|
w: ev- er- more con-|fess Thee Our|Sav- ior and our|King.|
V:2
 E2 | x8 | x8 | E2 E2 x4 | x8 | x8 | x8 | x8 | x8 | x6 E2 | x8 | x8 | x8 | x6 E2 | x8 | x7 E | %16
 E6 |] %17
V:3
 [E,G,]2 | [E,B,]3 [E,B,] [E,C]2 [E,A,]2 | [E,G,]4 [E,B,]2 [F,B,]2 | %3
 [G,B,]2 [G,B,]2 [F,=A,]2 [F,A,]2 | [B,,B,]6 [B,,B,]2 | [E,B,]3 [E,B,] [E,C]2 [E,A,]2 | %6
 [E,G,]4 [E,G,]2 [C,G,]2 | [D,B,]2 [E,G,]2 F,2 [F,C]2 | [B,,B,]6 [B,,B,]2 | %9
 [E,B,]3 [E,E] [E,B,]2 [E,G,]2 | A,4 A,2 [G,B,]2 | [F,=A,]3 [F,A,] [F,B,]2 [F,C]2 | B,6 [A,B,]2 | %13
 [G,B,]3 [E,E] [E,B,]2 [E,G,]2 | [A,,A,]4 [A,,C]2 [A,,A,]2 | [B,,G,]2 [B,,B,]2 [B,,A,]3 [E,G,] | %16
 [E,G,]6 |] %17
V:4
 x2 | x8 | x8 | x8 | x8 | x8 | x8 | x4 F,2 x2 | x8 | x8 | A,4 A,2 x2 | x8 | B,6 x2 | x8 | x8 | x8 | %16
 x6 |] %17

